X:1
T:Join the British Army
M:6/8
L:1/4
K:C
 A/2| d e/2 d c/2| A A/2 A A/2| c d/2 c A/2| G F/2 D C/2| D E/2 F G/2|\
 A A/2 A A/2| A G/2 F G/2| A3/2 A||
